X: 43213
T: With Biddy By My Side
R: barndance
M: 4/4
K: Eminor
EFGA BcAc|BAGB ADFD|EDEA BcAc|1 BA (3B^cd e2z2:|2 BA (3B^cd e2(ef)||
~g2fg edB^c|dA^cA Bdef|gAfg edBA|BA (3B^cd eAfa|
~g3f edB^c|dA^cA Bdga|(3bag af gfed|BABd e2z2||

